assets/svg/action_login_linkaccount.svg

<svg width="80" height="80" viewBox="0 0 80 80" fill="none" xmlns="http://www.w3.org/2000/svg">
<path d="M54.8125 69.9082C54.4734 69.9082 54.1984 70.1831 54.1984 70.5223C54.1984 72.866 52.2984 74.766 49.9547 74.766H31.1953C29.6859 74.766 28.4609 75.991 28.4609 77.5004H49.9547C53.8094 77.5004 56.9328 74.3754 56.9328 70.5223V69.9082H54.8125Z" fill="#E1EAF8"/>
<path d="M43.9438 8.05313H32.4609C31.5203 8.05313 30.6844 7.45156 30.3859 6.55781L29.0312 2.5H47.3719L46.0187 6.55781C45.8732 6.99307 45.5946 7.37159 45.2223 7.63991C44.8499 7.90823 44.4027 8.05277 43.9438 8.05313Z" fill="#E1EAF8"/>
<path d="M43.0126 63.489C43.1098 63.4567 43.1916 63.3992 43.2544 63.3254C43.3157 63.2537 43.3574 63.1674 43.3754 63.0749C43.3933 62.9823 43.3871 62.8867 43.3571 62.7973C43.3344 62.7292 43.2985 62.6662 43.2515 62.612C43.2044 62.5578 43.1471 62.5134 43.0828 62.4814C43.0186 62.4494 42.9486 62.4304 42.877 62.4255C42.8054 62.4206 42.7335 62.4299 42.6654 62.4528L38.8081 63.7475C38.74 63.7702 38.677 63.8061 38.6228 63.8532C38.5686 63.9003 38.5242 63.9576 38.4922 64.0218C38.4602 64.0861 38.4412 64.156 38.4363 64.2277C38.4314 64.2993 38.4407 64.3712 38.4636 64.4392C38.4863 64.5073 38.5222 64.5703 38.5693 64.6245C38.6164 64.6787 38.6737 64.7231 38.7379 64.7551C38.8022 64.7871 38.8722 64.8061 38.9438 64.811C39.0154 64.8159 39.0873 64.8066 39.1553 64.7837L43.0126 63.489Z" fill="#0166FF"/>
<path d="M47.5147 71.9679C47.6402 71.9458 47.7541 71.8806 47.8367 71.7835C47.8792 71.7336 47.9142 71.6731 47.9377 71.6069L49.2608 67.7595C49.3586 67.4734 49.2072 67.1619 48.9211 67.0641C48.635 66.9663 48.3235 67.1178 48.2257 67.4039L46.9027 71.2513C46.8612 71.3718 46.8632 71.503 46.9082 71.6223C46.9532 71.7415 47.0384 71.8413 47.1491 71.9044C47.2599 71.9675 47.3892 71.99 47.5147 71.9679Z" fill="#0166FF"/>
<path d="M68.8467 44.3216C68.7496 44.3538 68.6678 44.4114 68.605 44.4851C68.5437 44.5568 68.502 44.6431 68.484 44.7357C68.466 44.8282 68.4723 44.9239 68.5023 45.0133C68.5249 45.0814 68.5608 45.1443 68.6079 45.1986C68.655 45.2528 68.7123 45.2971 68.7766 45.3291C68.8408 45.3612 68.9108 45.3802 68.9824 45.3851C69.054 45.39 69.1259 45.3807 69.1939 45.3577L73.0513 44.063C73.1194 44.0403 73.1823 44.0044 73.2365 43.9574C73.2908 43.9103 73.3351 43.853 73.3671 43.7887C73.3991 43.7245 73.4181 43.6545 73.4231 43.5829C73.428 43.5113 73.4187 43.4394 73.3957 43.3713C73.3731 43.3032 73.3372 43.2403 73.2901 43.1861C73.243 43.1318 73.1857 43.0875 73.1214 43.0555C73.0572 43.0235 72.9872 43.0045 72.9156 42.9995C72.844 42.9946 72.7721 43.0039 72.7041 43.0269L68.8467 44.3216Z" fill="#0166FF"/>
<path d="M64.3447 35.8427C64.2192 35.8647 64.1053 35.9299 64.0227 36.027C63.9802 36.077 63.9451 36.1374 63.9217 36.2036L62.5986 40.051C62.5008 40.3371 62.6522 40.6486 62.9383 40.7464C63.2244 40.8442 63.5359 40.6928 63.6337 40.4067L64.9567 36.5593C64.9982 36.4387 64.9962 36.3075 64.9512 36.1883C64.9062 36.069 64.821 35.9693 64.7102 35.9062C64.5995 35.8431 64.4702 35.8206 64.3447 35.8427Z" fill="#0166FF"/>
<path d="M56.2234 69.6332C56.2234 69.3316 56.4688 69.0863 56.7703 69.0863C57.0734 69.0863 57.3172 69.3301 57.3156 69.6332V70.5223C57.3156 74.6707 53.9406 78.0473 49.7906 78.0473H26.2828C22.1344 78.0473 18.7578 74.6723 18.7578 70.5223L18.7584 67.9998L18.7579 64.2142C18.7578 63.9117 19.003 63.6665 19.3055 63.6665C19.6079 63.6665 19.8531 63.9117 19.8531 64.2141V70.5223C19.8531 74.0676 22.7375 76.9535 26.2844 76.9535H49.7922C53.3375 76.9535 56.2234 74.0691 56.2234 70.5223V69.6332Z" fill="#9A9A9A"/>
<path d="M27.3863 38.5645H46.5066C46.8082 38.5645 47.0535 38.3191 47.0535 38.0176C47.0535 37.716 46.8082 37.4707 46.5066 37.4707H27.3863C27.0848 37.4707 26.8395 37.716 26.8395 38.0176C26.8395 38.3191 27.0848 38.5645 27.3863 38.5645Z" fill="#9A9A9A"/>
<path d="M27.3844 44.0035H41.5047C41.8062 44.0035 42.0516 43.7582 42.0516 43.4566C42.0516 43.155 41.8062 42.9097 41.5047 42.9097H27.3844C27.0828 42.9097 26.8375 43.155 26.8375 43.4566C26.8375 43.7582 27.0828 44.0035 27.3844 44.0035ZM37.0312 49.1129H27.3281C27.0266 49.1129 26.7812 49.3582 26.7812 49.6597C26.7812 49.9613 27.0266 50.2066 27.3281 50.2066H37.0312C37.3328 50.2066 37.5781 49.9613 37.5781 49.6597C37.5781 49.3582 37.3328 49.1129 37.0312 49.1129ZM37.0312 54.5519H27.3281C27.0266 54.5519 26.7812 54.7972 26.7812 55.0988C26.7812 55.4004 27.0266 55.6457 27.3281 55.6457H37.0312C37.3328 55.6457 37.5781 55.4004 37.5781 55.0988C37.5781 54.7972 37.3328 54.5519 37.0312 54.5519Z" fill="#9A9A9A"/>
<path d="M18.7609 9.47813V60.0273C18.7609 60.3298 19.0061 60.575 19.3086 60.575C19.6111 60.575 19.8563 60.3298 19.8563 60.0273V9.47813C19.8563 5.93281 22.7406 3.04688 26.2875 3.04688H49.7953C53.3406 3.04688 56.2266 5.93125 56.2266 9.47813V38.1719C56.2266 38.4734 56.4719 38.7188 56.7734 38.7188C57.075 38.7188 57.3203 38.4734 57.3203 38.1719V9.47813C57.3203 5.32969 53.9453 1.95312 49.7953 1.95312H26.2859C22.1375 1.95312 18.7609 5.32813 18.7609 9.47813Z" fill="#9A9A9A"/>
<path d="M45.0959 27.5453L45.0958 27.4625C45.0958 26.1376 44.1477 25.0619 42.886 24.3521M45.0959 27.5453L44.4959 27.5458L44.4958 27.4631L44.4958 27.4625C44.4958 26.4518 43.7684 25.537 42.5918 24.875L42.886 24.3521M45.0959 27.5453V27.5453C45.0968 28.4874 45.0979 29.6699 44.0609 30.5145C43.5506 30.9301 42.8365 31.2257 41.8718 31.4211M45.0959 27.5453L44.4959 27.5458C44.4968 28.5194 44.4716 29.4062 43.682 30.0492L43.682 30.0493C43.2752 30.3806 42.6657 30.6481 41.7528 30.833M42.886 24.3521L42.5918 24.875C41.4165 24.2139 39.7935 23.8052 38.0011 23.8052C36.2087 23.8052 34.5857 24.2139 33.4104 24.875M42.886 24.3521C41.6053 23.6316 39.877 23.2052 38.0011 23.2052C36.1252 23.2052 34.3969 23.6316 33.1162 24.3521C31.8546 25.0619 30.9064 26.1376 30.9064 27.4625L30.9063 27.5453C30.9054 28.4874 30.9042 29.6699 31.9413 30.5145C32.4517 30.9301 33.1657 31.2257 34.1304 31.4211M34.1304 31.4211C35.0977 31.6168 36.3586 31.7199 38.0011 31.7199C39.6437 31.7199 40.9045 31.6168 41.8718 31.4211M34.1304 31.4211L34.2495 30.833C34.2494 30.833 34.2494 30.833 34.2494 30.833M34.1304 31.4211L34.2494 30.833M41.8718 31.4211L41.7528 30.833M41.8718 31.4211L41.7527 30.833C41.7528 30.833 41.7528 30.833 41.7528 30.833M41.7528 30.833C40.8399 31.0177 39.623 31.1199 38.0011 31.1199C36.3792 31.1199 35.1623 31.0177 34.2494 30.833M34.2494 30.833C33.3365 30.6481 32.727 30.3806 32.3202 30.0492L32.3202 30.0492C31.5306 29.4062 31.5054 28.5194 31.5063 27.5458L31.5063 27.5456L31.5064 27.4629V27.4625C31.5064 26.4518 32.2338 25.537 33.4104 24.875M33.4104 24.875L33.117 24.3535L33.4104 24.875C33.4104 24.875 33.4104 24.875 33.4104 24.875ZM43.2929 29.5713C42.9925 29.816 42.4902 30.0548 41.6305 30.2289M43.2929 29.5713L43.6718 30.0365M43.2929 29.5713C43.8469 29.1201 43.8796 28.5231 43.8796 27.4625C43.8796 26.7722 43.3758 26.0232 42.2897 25.4123L32.3304 30.0365C31.5226 29.3786 31.5226 28.4685 31.5226 27.465V27.4625C31.5226 26.461 32.2432 25.5504 33.4183 24.8893C34.5907 24.2298 36.211 23.8216 38.0011 23.8216C39.7913 23.8216 41.4115 24.2298 42.5839 24.8893C43.759 25.5504 44.4796 26.4611 44.4796 27.4625V27.4651C44.4796 28.4686 44.4796 29.3786 43.6718 30.0365M43.2929 29.5713L43.6718 30.0364C43.6718 30.0365 43.6718 30.0365 43.6718 30.0365M41.6305 30.2289L41.7496 30.8169C42.661 30.6324 43.2677 30.3656 43.6718 30.0365M41.6305 30.2289L41.7495 30.8169C40.8381 31.0014 39.6225 31.1035 38.0011 31.1035C36.3797 31.1035 35.1641 31.0014 34.2526 30.8169C33.3412 30.6324 32.7344 30.3656 32.3304 30.0365L32.7093 29.5713C33.0097 29.816 33.512 30.0548 34.3717 30.2289C35.2287 30.4023 36.4003 30.5035 38.0011 30.5035C39.6019 30.5035 40.7735 30.4023 41.6305 30.2289ZM34.7486 18.1332C34.7486 16.3371 36.2044 14.8813 38 14.8813C39.7957 14.8813 41.2515 16.3371 41.2515 18.1332C41.2515 19.9292 39.7957 21.3851 38 21.3851C36.2044 21.3851 34.7486 19.9292 34.7486 18.1332ZM38 14.8976C36.2132 14.8976 34.7649 16.3463 34.7649 18.1332C34.7649 19.92 36.2132 21.3687 38 21.3687C39.7869 21.3687 41.2352 19.92 41.2352 18.1332C41.2352 16.3463 39.7869 14.8976 38 14.8976Z" stroke="#9A9A9A" stroke-width="1.2"/>
<path fill-rule="evenodd" clip-rule="evenodd" d="M57 66C63.6274 66 69 60.6274 69 54C69 47.3726 63.6274 42 57 42C50.3726 42 45 47.3726 45 54C45 60.6274 50.3726 66 57 66Z" fill="#0166FF"/>
<path d="M52.0641 51.6665V51.1999C52.0641 50.3332 52.2641 49.5332 52.7974 48.9332C53.3307 48.3332 54.1307 47.9999 55.1307 48.0665H58.8641C59.8641 48.0665 60.6641 48.3332 61.1974 48.9332C61.7307 49.5332 61.9307 50.3332 61.9307 51.1999V56.7999C61.9307 57.7332 61.7307 58.5332 61.1974 59.1332C60.6641 59.6665 59.8641 59.9999 58.8641 59.9999H55.1307C54.1307 59.9999 53.3307 59.7332 52.7974 59.1332C52.2641 58.5332 52.0641 57.6665 52.0641 56.7999V56.3332M56.6641 53.9999H50.6641M56.6641 53.9999L54.9974 52.3332M56.6641 53.9999L54.9974 55.7999" stroke="white" stroke-width="1.1" stroke-linecap="round" stroke-linejoin="round"/>
</svg>

<svg xmlns="http://www.w3.org/2000/svg" width="80" height="80" fill="none"><path fill="#E1EAF8" d="M54.813 69.908a.614.614 0 0 0-.615.614c0 2.344-1.9 4.244-4.243 4.244h-18.76a2.735 2.735 0 0 0-2.734 2.734h21.494a6.98 6.98 0 0 0 6.978-6.978v-.614zM43.944 8.053H32.46c-.94 0-1.777-.601-2.075-1.495L29.03 2.5h18.34L46.02 6.558a2.19 2.19 0 0 1-2.075 1.495"/><path fill="#0166FF" d="M43.013 63.489a.54.54 0 0 0 .362-.414.546.546 0 0 0-.71-.622l-3.857 1.294a.545.545 0 1 0 .347 1.037zM47.515 71.968a.55.55 0 0 0 .423-.361l1.323-3.847a.547.547 0 1 0-1.035-.356l-1.323 3.847a.547.547 0 0 0 .612.717M68.847 44.322a.54.54 0 0 0-.363.414.545.545 0 0 0 .71.622l3.857-1.295a.546.546 0 1 0-.347-1.036zM64.345 35.843a.55.55 0 0 0-.423.36l-1.323 3.848a.547.547 0 1 0 1.035.356l1.323-3.848a.547.547 0 0 0-.612-.716"/><path fill="#9A9A9A" d="M56.223 69.633c0-.301.246-.547.547-.547.303 0 .547.244.546.547v.89c0 4.148-3.375 7.524-7.525 7.524H26.283c-4.149 0-7.525-3.375-7.525-7.525v-6.308a.548.548 0 1 1 1.095 0v6.308a6.44 6.44 0 0 0 6.431 6.432h23.508a6.44 6.44 0 0 0 6.431-6.432zM27.386 38.565h19.12a.548.548 0 0 0 0-1.094h-19.12a.547.547 0 0 0 0 1.094M27.384 44.004h14.12a.548.548 0 0 0 0-1.094h-14.12a.547.547 0 0 0 0 1.094m9.647 5.109h-9.703a.548.548 0 0 0 0 1.094h9.703a.547.547 0 0 0 0-1.094m0 5.439h-9.703a.548.548 0 0 0 0 1.094h9.703a.547.547 0 0 0 0-1.094"/><path fill="#9A9A9A" d="M18.76 9.478v50.55a.548.548 0 1 0 1.096 0V9.477a6.44 6.44 0 0 1 6.432-6.431h23.507a6.44 6.44 0 0 1 6.432 6.431v28.694a.548.548 0 0 0 1.093 0V9.478c0-4.148-3.375-7.525-7.525-7.525h-23.51c-4.148 0-7.524 3.375-7.524 7.525"/><path stroke="#9A9A9A" stroke-width="1.2" d="M45.096 27.545v-.083c0-1.324-.948-2.4-2.21-3.11m2.21 3.193h-.6v-.082c0-1.011-.728-1.926-1.904-2.588l.294-.523m2.21 3.193c0 .942.002 2.125-1.035 2.97-.51.415-1.224.71-2.19.906m3.225-3.876h-.6c0 .974-.024 1.861-.814 2.504-.407.332-1.016.6-1.93.784m1.134-6.48-.294.522c-1.175-.661-2.798-1.07-4.59-1.07-1.793 0-3.416.409-4.592 1.07m9.476-.523c-1.28-.72-3.009-1.147-4.885-1.147s-3.604.427-4.885 1.147c-1.261.71-2.21 1.786-2.21 3.11v.083c0 .942-.002 2.125 1.035 2.97.51.415 1.225.71 2.19.906m0 0c.967.196 2.228.299 3.87.299 1.643 0 2.904-.103 3.87-.299m-7.74 0 .118-.588m-.119.588.12-.588m7.622.588-.12-.588m.12.588-.12-.588m0 0c-.912.185-2.129.287-3.75.287-1.623 0-2.84-.102-3.753-.287m0 0c-.913-.185-1.522-.452-1.929-.784-.79-.643-.815-1.53-.814-2.503v-.083c0-1.011.728-1.926 1.904-2.588m0 0-.293-.521.293.521Zm9.883 4.696c-.3.245-.803.484-1.663.658m1.663-.658.379.465m-.38-.465c.555-.45.588-1.048.588-2.109 0-.69-.504-1.439-1.59-2.05l-9.96 4.625c-.807-.658-.807-1.569-.807-2.572v-.003c0-1.001.72-1.912 1.895-2.573 1.173-.66 2.793-1.067 4.583-1.067s3.41.408 4.583 1.067c1.175.661 1.896 1.572 1.896 2.573v.003c0 1.004 0 1.914-.808 2.572m-.38-.466.38.465m-2.041.193.119.588c.911-.185 1.518-.451 1.922-.78m-2.041.192.118.588c-.91.184-2.126.287-3.748.287-1.621 0-2.837-.103-3.748-.287-.912-.185-1.519-.451-1.923-.78l.38-.466c.3.245.802.484 1.662.658.857.173 2.028.274 3.63.274 1.6 0 2.771-.1 3.628-.274Zm-6.882-12.096a3.252 3.252 0 1 1 6.503 0 3.252 3.252 0 0 1-6.503 0ZM38 14.898a3.235 3.235 0 1 0 0 6.47 3.235 3.235 0 0 0 0-6.47Z"/><path fill="#0166FF" fill-rule="evenodd" d="M57 66c6.627 0 12-5.373 12-12s-5.373-12-12-12-12 5.373-12 12 5.373 12 12 12" clip-rule="evenodd"/><path stroke="#fff" stroke-linecap="round" stroke-linejoin="round" stroke-width="1.1" d="M52.064 51.667V51.2c0-.867.2-1.667.733-2.267.534-.6 1.334-.933 2.334-.867h3.733c1 0 1.8.267 2.333.867s.734 1.4.734 2.267v5.6c0 .933-.2 1.733-.734 2.333-.533.533-1.333.867-2.333.867h-3.733c-1 0-1.8-.267-2.334-.867-.533-.6-.733-1.467-.733-2.333v-.467m4.6-2.333h-6m6 0-1.667-1.667M56.664 54l-1.667 1.8"/></svg>
